app/resources/toolbar/selectAll.svg

<?xml version="1.0" encoding="UTF-8" standalone="no"?>
<!-- Created with Inkscape (http://www.inkscape.org/) -->

<svg
   xmlns:dc="http://purl.org/dc/elements/1.1/"
   xmlns:cc="http://creativecommons.org/ns#"
   xmlns:rdf="http://www.w3.org/1999/02/22-rdf-syntax-ns#"
   xmlns:svg="http://www.w3.org/2000/svg"
   xmlns="http://www.w3.org/2000/svg"
   xmlns:sodipodi="http://sodipodi.sourceforge.net/DTD/sodipodi-0.dtd"
   xmlns:inkscape="http://www.inkscape.org/namespaces/inkscape"
   width="64"
   height="64"
   id="svg4152"
   version="1.1"
   inkscape:version="0.91 r13725"
   viewBox="0 0 64 64"
   sodipodi:docname="selectAll.svg"
   inkscape:export-filename="/home/davi/git/wiRedPanda/app/resources/toolbar/zoomOut.png"
   inkscape:export-xdpi="300"
   inkscape:export-ydpi="300">
  <defs
     id="defs4154" />
  <sodipodi:namedview
     id="base"
     pagecolor="#ffffff"
     bordercolor="#666666"
     borderopacity="1.0"
     inkscape:pageopacity="0.0"
     inkscape:pageshadow="2"
     inkscape:zoom="5.5"
     inkscape:cx="35.082387"
     inkscape:cy="46.922398"
     inkscape:current-layer="layer1"
     showgrid="false"
     inkscape:document-units="px"
     inkscape:grid-bbox="true"
     inkscape:window-width="1920"
     inkscape:window-height="1016"
     inkscape:window-x="0"
     inkscape:window-y="28"
     inkscape:window-maximized="1">
    <inkscape:grid
       type="xygrid"
       id="grid4700" />
  </sodipodi:namedview>
  <metadata
     id="metadata4157">
    <rdf:RDF>
      <cc:Work
         rdf:about="">
        <dc:format>image/svg+xml</dc:format>
        <dc:type
           rdf:resource="http://purl.org/dc/dcmitype/StillImage" />
        <dc:title></dc:title>
      </cc:Work>
    </rdf:RDF>
  </metadata>
  <g
     id="layer1"
     inkscape:label="Layer 1"
     inkscape:groupmode="layer">
    <path
       style="color:#000000;clip-rule:nonzero;display:inline;overflow:visible;visibility:visible;opacity:1;isolation:auto;mix-blend-mode:normal;color-interpolation:sRGB;color-interpolation-filters:linearRGB;solid-color:#000000;solid-opacity:1;fill:#4e4e4e;fill-opacity:1;fill-rule:nonzero;stroke:none;stroke-width:1;stroke-linecap:round;stroke-linejoin:round;stroke-miterlimit:4;stroke-dasharray:none;stroke-dashoffset:0;stroke-opacity:1;color-rendering:auto;image-rendering:auto;shape-rendering:auto;text-rendering:auto;enable-background:accumulate"
       d="m 9.2386504,9.2386506 0,11.4812484 4.3932686,0 0,-7.087979 7.08798,0 0,-4.3932694 -11.4812486,0 z m 34.0414496,0 0,4.3932694 7.081596,0 0,7.087979 4.399653,0 0,-11.4812484 -11.481249,0 z M 9.2386504,43.273718 l 0,11.487632 11.4812486,0 0,-4.399653 -7.08798,0 0,-7.087979 -4.3932686,0 z m 41.1230456,0 0,7.087979 -7.081596,0 0,4.399653 11.481249,0 0,-11.487632 -4.399653,0 z"
       id="rect3420"
       inkscape:connector-curvature="0" />
    <rect
       style="opacity:1;fill:none;fill-opacity:1;stroke:#4e4e4e;stroke-width:2.5;stroke-linecap:round;stroke-linejoin:round;stroke-miterlimit:4;stroke-dasharray:none;stroke-opacity:1"
       id="rect4185"
       width="21.999992"
       height="21.999992"
       x="21.000004"
       y="21.000004"
       rx="1.2469121" />
    <rect
       style="opacity:1;fill:#4e4e4e;fill-opacity:1;stroke:none;stroke-width:2;stroke-linecap:round;stroke-linejoin:round;stroke-miterlimit:4;stroke-dasharray:none;stroke-opacity:1"
       id="rect4187"
       width="4.3863635"
       height="10"
       x="9.227273"
       y="27"
       rx="0" />
    <rect
       style="opacity:1;fill:#4e4e4e;fill-opacity:1;stroke:none;stroke-width:2;stroke-linecap:round;stroke-linejoin:round;stroke-miterlimit:4;stroke-dasharray:none;stroke-opacity:1"
       id="rect4187-3"
       width="4.3863635"
       height="10"
       x="50.549999"
       y="27"
       rx="0" />
    <rect
       style="opacity:1;fill:#4e4e4e;fill-opacity:1;stroke:none;stroke-width:2;stroke-linecap:round;stroke-linejoin:round;stroke-miterlimit:4;stroke-dasharray:none;stroke-opacity:1"
       id="rect4187-3-6"
       width="4.3863635"
       height="10"
       x="50.374638"
       y="-37"
       rx="0"
       transform="matrix(0,1,-1,0,0,0)" />
    <rect
       style="opacity:1;fill:#4e4e4e;fill-opacity:1;stroke:none;stroke-width:2;stroke-linecap:round;stroke-linejoin:round;stroke-miterlimit:4;stroke-dasharray:none;stroke-opacity:1"
       id="rect4187-3-6-7"
       width="4.3863635"
       height="10"
       x="9.0636368"
       y="-37"
       rx="0"
       transform="matrix(0,1,-1,0,0,0)" />
  </g>
</svg>

<?xml version="1.0" encoding="UTF-8" standalone="no"?>
<!-- Created with Inkscape (http://www.inkscape.org/) -->

<svg
   width="64"
   height="64"
   id="svg4152"
   version="1.1"
   inkscape:version="1.2 (dc2aedaf03, 2022-05-15)"
   viewBox="0 0 64 64"
   sodipodi:docname="selectAll.svg"
   inkscape:export-filename="/home/davi/git/wiRedPanda/app/resources/toolbar/zoomOut.png"
   inkscape:export-xdpi="300"
   inkscape:export-ydpi="300"
   xmlns:inkscape="http://www.inkscape.org/namespaces/inkscape"
   xmlns:sodipodi="http://sodipodi.sourceforge.net/DTD/sodipodi-0.dtd"
   xmlns="http://www.w3.org/2000/svg"
   xmlns:svg="http://www.w3.org/2000/svg"
   xmlns:rdf="http://www.w3.org/1999/02/22-rdf-syntax-ns#"
   xmlns:cc="http://creativecommons.org/ns#"
   xmlns:dc="http://purl.org/dc/elements/1.1/">
  <defs
     id="defs4154" />
  <sodipodi:namedview
     id="base"
     pagecolor="#ffffff"
     bordercolor="#666666"
     borderopacity="1.0"
     inkscape:pageopacity="0.0"
     inkscape:pageshadow="2"
     inkscape:zoom="5.5"
     inkscape:cx="31.818182"
     inkscape:cy="47.090909"
     inkscape:current-layer="layer1"
     showgrid="false"
     inkscape:document-units="px"
     inkscape:grid-bbox="true"
     inkscape:window-width="3840"
     inkscape:window-height="2097"
     inkscape:window-x="-8"
     inkscape:window-y="-8"
     inkscape:window-maximized="1"
     inkscape:showpageshadow="2"
     inkscape:pagecheckerboard="0"
     inkscape:deskcolor="#d1d1d1">
    <inkscape:grid
       type="xygrid"
       id="grid4700" />
  </sodipodi:namedview>
  <metadata
     id="metadata4157">
    <rdf:RDF>
      <cc:Work
         rdf:about="">
        <dc:format>image/svg+xml</dc:format>
        <dc:type
           rdf:resource="http://purl.org/dc/dcmitype/StillImage" />
        <dc:title />
      </cc:Work>
    </rdf:RDF>
  </metadata>
  <g
     id="layer1"
     inkscape:label="Layer 1"
     inkscape:groupmode="layer"
     style="display:inline">
    <path
       style="color:#000000;clip-rule:nonzero;display:inline;overflow:visible;visibility:visible;opacity:1;isolation:auto;mix-blend-mode:normal;color-interpolation:sRGB;color-interpolation-filters:linearRGB;solid-color:#000000;solid-opacity:1;fill:#bd2812;fill-opacity:1;fill-rule:nonzero;stroke:none;stroke-width:1;stroke-linecap:round;stroke-linejoin:round;stroke-miterlimit:4;stroke-dasharray:none;stroke-dashoffset:0;stroke-opacity:1;color-rendering:auto;image-rendering:auto;shape-rendering:auto;text-rendering:auto;enable-background:accumulate"
       d="M 9.2386504,9.2386506 V 20.719899 H 13.631919 V 13.63192 h 7.08798 V 9.2386506 Z m 34.0414496,0 V 13.63192 h 7.081596 v 7.087979 h 4.399653 V 9.2386506 Z M 9.2386504,43.273718 V 54.76135 H 20.719899 v -4.399653 h -7.08798 v -7.087979 z m 41.1230456,0 v 7.087979 H 43.2801 V 54.76135 H 54.761349 V 43.273718 Z"
       id="rect3420"
       inkscape:connector-curvature="0" />
    <rect
       style="opacity:1;fill:none;fill-opacity:1;stroke:#bd2812;stroke-width:2.5;stroke-linecap:round;stroke-linejoin:round;stroke-miterlimit:4;stroke-dasharray:none;stroke-opacity:1"
       id="rect4185"
       width="21.999992"
       height="21.999992"
       x="21.000004"
       y="21.000004"
       rx="1.2469121" />
    <rect
       style="opacity:1;fill:#bd2812;fill-opacity:1;stroke:none;stroke-width:2;stroke-linecap:round;stroke-linejoin:round;stroke-miterlimit:4;stroke-dasharray:none;stroke-opacity:1"
       id="rect4187"
       width="4.3863635"
       height="10"
       x="9.227273"
       y="27"
       rx="0" />
    <rect
       style="opacity:1;fill:#bd2812;fill-opacity:1;stroke:none;stroke-width:2;stroke-linecap:round;stroke-linejoin:round;stroke-miterlimit:4;stroke-dasharray:none;stroke-opacity:1"
       id="rect4187-3"
       width="4.3863635"
       height="10"
       x="50.549999"
       y="27"
       rx="0" />
    <rect
       style="opacity:1;fill:#bd2812;fill-opacity:1;stroke:none;stroke-width:2;stroke-linecap:round;stroke-linejoin:round;stroke-miterlimit:4;stroke-dasharray:none;stroke-opacity:1"
       id="rect4187-3-6"
       width="4.3863635"
       height="10"
       x="50.374638"
       y="-37"
       rx="0"
       transform="rotate(90)" />
    <rect
       style="opacity:1;fill:#bd2812;fill-opacity:1;stroke:none;stroke-width:2;stroke-linecap:round;stroke-linejoin:round;stroke-miterlimit:4;stroke-dasharray:none;stroke-opacity:1"
       id="rect4187-3-6-7"
       width="4.3863635"
       height="10"
       x="9.0636368"
       y="-37"
       rx="0"
       transform="rotate(90)" />
  </g>
</svg>
